X:61
T:Untitled. HA.060
M:3/4
L:1/8
Q:1/4=120
S:Henry Atkinson’s original MS,Hartburn,N’umberland,1694.
O:England
A:Hartburn,Northumberland
N:No B Strain.
H:1/8
Z:vmp.Chris Partington.Jan.2004
K:D
“^cr”d3A (dA)|B2F2(ED)|d2(fd) (af)|e2c2B2|
BF Bc de|f2d2A2|FA BA dA|F2D2D2|]

